X: 1705
T: Sen Benim Gönlümde...
C: Emin Ongan
O: Turkey
F: http://compmusic.upf.edu/node/140
N: nihavent--sarki--duyek--sen_benim--emin_ongan
N: makam= nihavent
N: form= sarki
N: usul= duyek = 8/4
M: 8/4
L: 1/16
K: C _B _e  
Q: 1/4=192
%%MIDI tuningsystem comma53
z2 d2 ^c2 d2 e2 d2 c2 d2  | z2 g4 d2 e4 d4  | \
w:   |   | 
z2 c2 =B2 c2 d2 c2 B2 c2  | 
w:   | 
z2 f4 e2 d4 B4  | z2 d2 ^c2 d2 e2 d2 c2 d2  | \
w:   |   | 
z2 b4 a2 g8  | z2 b4 a2 g4 f4  | 
w:   |   | 
z2 e4 d2 c8  | z2 a4 g2 f4 e4  | z2 d4 c2 B8  | \
w:   |   |   | 
z2 e4 d2 c4 B4  | z2 c4 B2 A8  | 
w:   |   | 
z2 d2 ^c2 d2 d2 B4 c2  | d2 B4 A2 G8  | \
w:   |   | 
z2 b4 a2 g4 f4  | z2 e4 d2 c8  | z2 a4 g2 f4 e4  | 
w:   |   |   | 
z2 d4 c2 B8  | z2 e4 d2 c4 B4  | z2 c4 B2 A8  | \
w:   |   |   | 
z2 d2 ^c2 d2 d2 B4 c2  | d2 B4 A2 G8  | 
w:   |   | 
z2 d4 d2 d4 d4  | e4 d8 z4  | g2 a4 g2 f4 e4  | \
w:  Sen  be nim  gön  |  lüm de   |  a çan  *  son  gül  | 
d4 c4 B4 c4  | z2 d4 d2 d4 d4  | 
w:  dün   SAZ  |  Sen  be nim  gön  | 
e4 d8 z4  | g2 a4 g2 f4 e4  | d16  | z2 b4 a2 g4 f4  | \
w:  lüm de   |  a çan  *  son  gül  |  dün    |  Has re tin dir   | 
g2 e8 z6  | g2 a4 g2 f4 g4  | 
w:  ya nan   |  i çim *  de  şim  | 
d16  | z2 g4 f2 e4 d4  | c2 =B6 e8  | d2 ^c6 d4 B4  | G16  | \
w:  di    |  Has re tin dir   |  ya nan   |  i çim de  şim  |  di    | 
z2 g4 a2 b6 g2  | b16  | z2 d'4 c'2 b4 a4  | 
w:  Kır dı ğın  ka  |  deh   |  son  te sel lîm  | 
g16  | z2 b4 a2 g6 f2  | e16  | z2 a4 g2 f4 g4  | d16  | \
w:  di    |  Kır dı ğın  ka  |  deh   |  son  te sel lîm  |  di    | 
d2 g4 f2 e4 g4  | e16  | z2 a4 g2 f2 g6  | 
w:  İ çim de ki  mey  |  le   |  sen  de  dö kül  | 
d16  | d2 g6 e4 d2 e2  | c16  | d2 f4 e2 d4 c4  | B16  | \
w:  dün    |  Ne  yap tım  sa na   |  ben   |  ne den  u zak laş  |  tın    | 
d2 e4 d2 c4 B4  | c2 A8 z6  | 
w:  Ye ter  bu  has ret   |  ye ter   | 
d4 c2 =B2 c4 _B4  | A2 B2 G12  | d2 g6 e4 d2 e2  | c16  | \
w:  gel  dö ne lim  sev  |  gi mi ze    |  Ne  yap tım  sa na   |  ben   | 
d2 f4 e2 d4 c4  | B16  | d2 e4 d2 c4 B4  | 
w:  ne den  u zak laş  |  tın    |  Ye ter  bu  has ret   | 
c2 A8 z6  | d4 c2 =B2 c4 _B4  | A2 B2 G12  | \
w:  ye ter   |  gel  dö ne lim  sev  |  gi mi ze    | 
z2 d2 ^c2 d2 e2 d2 c2 d2  | z2 g4 d2 e4 d4  | 
w:   |   | 
z2 c2 =B2 c2 d2 c2 B2 c2  | z2 f4 e2 d4 B4  | \
w:   |   | 
z2 d2 ^c2 d2 e2 d2 c2 d2  | 
w:   | 
z2 b4 a2 g8  | z2 b4 a2 g4 f4  | z2 e4 d2 c8  | \
w:   |   |   | 
z2 a4 g2 f4 e4  | z2 d4 c2 B8  | 
w:   |   | 
z2 e4 d2 c4 B4  | z2 c4 B2 A8  | z2 d2 ^c2 d2 d2 B4 c2  | \
w:   |   |   | 
d2 B4 A2 G8  | z2 b4 a2 g4 f4  | 
w:   |   | 
z2 e4 d2 c8  | z2 a4 g2 f4 e4  | z2 d4 c2 B8  | \
w:   |   |   | 
z2 e4 d2 c4 B4  | z2 c4 B2 A8  | 
w:   |   | 
z2 d2 ^c2 d2 d2 B4 c2  | d2 B4 A2 G8  | \
w:   |   | 
z2 d4 d2 d4 d4  | e4 d8 z4  | z2 a4 g2 f4 e4  | 
w:  Sen  be nim  gü  |  ne şim   |  tat lı  ba ha  | 
d4 c4 B4 c4  | z2 d4 d2 d4 d4  | e4 d8 z4  | \
w:  rım   SAZ  |  Sen  be nim  gü  |  ne şim   | 
z2 a4 g2 f4 e4  | d16  | z2 b4 a2 g4 f4  | 
w:  tat lı  ba ha  |  rım    |  Her  şe yim din   | 
g2 e8 z6  | g2 a4 g2 f4 g4  | d16  | z2 g4 f2 e4 d4  | \
w:  be nim   |  gü len  *  bah tım  |  dın    |  Her  şe yim din   | 
c2 =B6 e8  | d2 ^c6 d4 B4  | 
w:  be nim   |  gü len  bah tım  | 
G16  | g2 g4 a2 b4 g2 a2  | b16  | d'2 d'4 c'2 b4 a4  | g16  | \
w:  dın    |  Son_ aş *  kım  son_ e  |  şim   |  gö nül  *  tah tım  |  dın    | 
b2 b4 a2 g4 f2 g2  | e16  | 
w:  Son_ aş *  kım  son_ e  |  şim   | 
g2 g4 f2 e4 f4  | d16  | z2 g4 f2 e4 g4  | e16  | \
w:  gö nül  *  tah tım  |  dın    |  Sen si zim  şim  |  di   | 
a2 a4 g2 f2 g6  | d16  | d2 g6 e4 d2 e2  | 
w:  na sıl  *  ha râ  |  bım    |  Ne  yap tım  sa na   | 
c16  | d2 f4 e2 d4 c4  | B16  | d2 e4 d2 c4 B4  | \
w:  ben   |  ne den  u zak laş  |  tın    |  Ye ter  bu  has ret   | 
c2 A8 z6  | d4 c2 =B2 c4 _B4  | A2 B2 G12  | 
w:  ye ter   |  gel  dö ne lim  sev  |  gi mi ze    | 
d2 g6 e4 d2 e2  | c16  | d2 f4 e2 d4 c4  | B16  | \
w:  Ne  yap tım  sa na   |  ben   |  ne den  u zak laş  |  tın    | 
d2 e4 d2 c4 B4  | c2 A8 z6  | d4 c2 =B2 c4 _B4  | 
w:  Ye ter  bu  has ret   |  ye ter   |  gel  dö ne lim  sev  | 
A2 B2 G12  | |


